imgs/icons/JG-logo.svg

<svg width="42" height="43" viewBox="0 0 42 43" fill="none" xmlns="http://www.w3.org/2000/svg">
<path d="M33.487 42.2293C29.9622 42.2293 27.8776 39.5478 27.8776 34.9806C27.8776 29.5891 30.597 27.7793 33.9039 27.7793C35.2779 27.7793 36.6802 28.092 37.5425 28.5563V33.9194H37.3719C37.2014 29.9776 35.6474 28.1109 33.8186 28.1109C31.5635 28.1109 30.2654 30.7167 30.2654 35.227C30.2654 39.4814 31.4403 41.9071 33.506 41.9071C34.3966 41.9071 35.6095 41.367 35.6095 39.5667V37.4726C35.6095 35.985 35.1452 35.3596 33.9987 35.3596V35.1796H38.6511V35.3596C37.9784 35.3596 37.6846 35.985 37.6846 37.4726V40.8269C36.9455 41.4807 35.1168 42.2293 33.487 42.2293Z" fill="black"/>
<path d="M8.91981 14.45C6.7123 14.45 5.03498 12.9751 5.02534 10.7387C5.0157 9.04209 5.95076 8.13596 6.92438 8.13596C7.66664 8.13596 8.24502 8.64686 8.24502 9.4566C8.24502 10.276 7.66664 10.7773 6.23995 10.7387L5.32418 10.7098C5.44949 12.3582 6.73158 13.1679 8.02331 13.1679C9.85486 13.1679 10.8478 11.9629 10.8478 9.96751V2.33282C10.8478 0.80974 10.3561 0.183155 9.1126 0.183155V0H14.7422V0.183155C13.5758 0.183155 13.1131 0.80974 13.1131 2.33282V9.7458C13.1131 12.657 11.4936 14.45 8.91981 14.45Z" fill="black"/>
<path d="M20.9996 0.204073C20.9996 0.204073 20.9996 12.8882 25.1573 17.0459C29.315 21.2036 41.9991 21.2036 41.9991 21.2036C41.9991 21.2036 29.315 21.2036 25.1573 25.3613C20.9996 29.519 20.9996 42.2032 20.9996 42.2032C20.9996 42.2032 20.9996 29.519 16.8419 25.3613C12.6842 21.2036 -2.7389e-06 21.2036 -2.7389e-06 21.2036C-2.7389e-06 21.2036 12.6842 21.2036 16.8419 17.0459C20.9996 12.8882 20.9996 0.204073 20.9996 0.204073Z" fill="black"/>
</svg>

<svg xmlns="http://www.w3.org/2000/svg" width="42" height="43" fill="none"><path fill="#000" d="M33.487 42.23c-3.525 0-5.61-2.682-5.61-7.25 0-5.39 2.72-7.2 6.027-7.2 1.374 0 2.776.312 3.638.776v5.363h-.17c-.17-3.941-1.725-5.808-3.553-5.808-2.256 0-3.554 2.606-3.554 7.116 0 4.254 1.175 6.68 3.241 6.68.89 0 2.103-.54 2.103-2.34v-2.094c0-1.488-.464-2.113-1.61-2.113v-.18h4.652v.18c-.673 0-.966.625-.966 2.113v3.354c-.74.654-2.568 1.402-4.198 1.402ZM8.92 14.45c-2.208 0-3.885-1.475-3.895-3.711-.01-1.697.926-2.603 1.9-2.603.742 0 1.32.51 1.32 1.32 0 .82-.578 1.321-2.005 1.283l-.916-.03c.125 1.65 1.408 2.459 2.7 2.459 1.83 0 2.824-1.205 2.824-3.2V2.333c0-1.523-.492-2.15-1.735-2.15V0h5.63v.183c-1.167 0-1.63.627-1.63 2.15v7.413c0 2.911-1.62 4.704-4.193 4.704Z"/><path fill="#000" d="M21 .204s0 12.684 4.157 16.842C29.315 21.204 42 21.204 42 21.204s-12.684 0-16.842 4.157C21 29.52 21 42.203 21 42.203s0-12.684-4.158-16.842C12.684 21.204 0 21.204 0 21.204s12.684 0 16.842-4.158C21 12.888 21 .204 21 .204Z"/></svg>
